lib/assets/images/arrow_down_24.svg

<svg width="24" height="24" viewBox="0 0 24 24" fill="none" xmlns="http://www.w3.org/2000/svg">
<path fill-rule="evenodd" clip-rule="evenodd" d="M12.0001 13.4823L17.9698 7.5126C18.2627 7.21971 18.7376 7.21971 19.0305 7.5126L19.384 7.86615C19.6769 8.15905 19.6769 8.63392 19.384 8.92681L13.0607 15.2501C12.4749 15.8359 11.5252 15.8359 10.9394 15.2501L4.61617 8.92687C4.32328 8.63398 4.32328 8.1591 4.61617 7.86621L4.96972 7.51266C5.26262 7.21976 5.73749 7.21976 6.03038 7.51266L12.0001 13.4823Z" fill="#99A0AB"/>
</svg>

<svg width="24" height="24" fill="none" xmlns="http://www.w3.org/2000/svg"><path fill-rule="evenodd" clip-rule="evenodd" d="M12 13.482l5.97-5.97a.75.75 0 0 1 1.06 0l.354.354a.75.75 0 0 1 0 1.06l-6.323 6.324a1.5 1.5 0 0 1-2.122 0L4.616 8.927a.75.75 0 0 1 0-1.06l.354-.354a.75.75 0 0 1 1.06 0l5.97 5.97z" fill="#99A0AB"/></svg>
